!!!!SEGMENT:Yorohizuke.krn
!!!OTL: よろひづけ
!!!OPR:Eiga Banso Kyokusyu,jidai-geki,kouhen
!!!YOY:1928
**kern
*clefG2
*k[f#]
*G:
*M4/4
*met(c)
=1
4r
4e 4ee
4e 4ee
4e 4ee
=2
8a
4a
8fn
4e
4r
=3
4g
4a
4e
4g
=4
8aL
8a
8e
8aJ
4b
4r
=5
4b
4b
4b
4dd
=6
8eeL
8ee
8e
8eeJ
4ee
4r
=7
8ff#L
8ff#
8aa
8ff#J
8eeL
8ee
8ff#
8eeJ
=8
8ddL
8dd
8ee
8ddJ
4b
4a
=9
8b
4b
8dd
4ee
4dd
=10
8eeL
8dd
8b
8bJ
4b
4r
=11
8eL
8cc
8cc
8bJ
8eL
8cc
8cc
8bJ
=12
8eL
8a
8b
8aJ
4fn
4e
=13
4d
4e
8r
8dd
4b-X
=14
4a
4a
2r
=:|!
*-
!!!ENC: Yukiko Yoden
!!!END: 2023/06/11
